X:5138
T:Pishla Maty Na Selo
T:Hrechanyky
O:england
S:A. Humenyuk
Q:72
M:4/4
L:1/8
K:F
c2 (dc) (BA) (BG) | F2 A2 C4 | \
F2 F2 G2 G2 | A2 F2 d2 d2 |\
c2 c2 (BA) (BG) | F2 A2 C2 C2 | \
F2 A2 (GA) (BG) | F2 F2 F2 F2 |
M:2/4
L:1/8
|: d2 d d | d e f d | c2 c c | c2 f2 |\
B B B B | B c d B | A A G G | F2 F2 :|


